X: 67
T: O Sacred Head, Now Wounded
M: 4/4 % time signature
L: 1/4 % default length
%%staves (S1V1 S1V2) | (S2V1 S2V2) 
V: S1V1 clef=treble 
%%MIDI beat 127 125 110 1
V: S1V2 
%%MIDI beat 127 125 110 1
V: S2V1 clef=bass 
%%MIDI beat 127 125 110 1
V: S2V2 
%%MIDI beat 127 125 110 1
K: C % key signature
%
%%MIDI program 1 0 % Piano 1
%%MIDI program 2 0 % Piano 1
%%MIDI program 3 0 % Piano 1
%%MIDI program 4 0 % Piano 1
%
% 1
[V: S1V1] [Q:1/4=100] E | A G F E | D2 E B | c c B/A/ B | A3
w: 1.~O sac- red Head, now wound- ed, with grief and shame * weighed down, 
w: 2.~What thou, my Lord, hast suf- fered, was all for sin- * ners' gain; 
w: 3.~Men mock and taunt and jeer thee, thou no- ble coun- * ten- ance, 
w: 4.~Now from thy cheeks has van- ished their co- lour once * so fair; 
w: 5.~My bur- den in thy Pas- sion, Lord, thou hast borne * for me, 
[V: S1V2]  C | C C C/D/ D/C/ | (C B,) C D | C/D/ E E3/2 D/ | C3
[V: S2V1]  G, | F, G, A,/G,/ G, | (A, G,) G, ^G, | A, A, A, ^G, | A,3
[V: S2V2]  C, | F, E, A,,/B,,/ C, | (F,, G,,) C, B,, | A,,/B,,/ C,/D,/ E, E,, | A,,3
% 5
[V: S1V1]  E | A G F E | D2 E B | c c B/A/ B | A3
w: Now scorn- ful- ly sur- round- ed with thorns, thine on- * ly crown; 
w: Mine, mine was the trans- gres- sion, but thine the dead- * ly pain. 
w: Though migh- ty worlds shall fear thee and flee be- fore * thy glance. 
w: From thy red lips is ban- ished the splen- dour that * was there. 
w: For it was my trans- gres- sion which brought this woe * on thee. 
[V: S1V2]  C | C C C/D/ D/C/ | (C B,) C D | C/D/ E E3/2 D/ | C3
[V: S2V1]  G, | F, G, A,/G,/ G, | (A, G,) G, ^G, | A, A, A, ^G, | A,3
[V: S2V2]  C, | F, E, A,,/B,,/ C, | (F,, G,,) C, B,, | A,,/B,,/ C,/D,/ E, E,, | A,,3
% 9
[V: S1V1]  c | B/A/ G A B | c2 c G | A G F F | E3
w: O sac- * red Head, what glo- ry, what bliss till now was thine! 
w: Lo, here * I fall, my Sa- viour! 'Tis I de- serve thy place; 
w: How art * thou pale with an- guish, with sore a- buse and scorn! 
w: Grim death, * with cru- el ri- gour, hath robbed thee of thy life; 
w: I cast * me down be- fore thee, wrath were my right- ful lot; 
[V: S1V2]  E | D/F/ E/D/ C F | (F E/D/) E E | F E E D | ^C3
[V: S2V1]  A,/G,/ | F,/A,/ C/B,/ A,/G,/ F,/G,/ | (A, G,/F,/) G, C | C _B, A, A, | A,3
[V: S2V2]  A,, | D, E, F,/E,/ D, | C,2 C, C, | F,/E,/ D,/^C,/ D,/E,/ F,/G,/ | A,3
% 13
[V: S1V1]  =c | B/c/ d c B | A2 B !sintro!E | F E D G | E3 !eintro!|]
w: Yet, though * des- pised and gor- y, I joy to call thee mine. 
w: Look on * me with thy fa- vour, vouch- safe to me thy grace. 
w: How doth * thy vis- age lan- guish that once was bright as morn! 
w: Thus thou * hast lost thy vi- gour, thy strength in this sad strife. 
w: Have mer- * cy, I im- plore thee; Re- deem- er, spurn me not! 
[V: S1V2]  D | D D E/^F/ G | (G ^F) G C/B,/ | A,/B,/ C C/A,/ B, | C3 |]
[V: S2V1]  A, | G, A, G,/A,/ B,/G,/ | (E D) D G, | F, G, G, G, | G,3 |]
[V: S2V2]  ^F, | G, ^F, E, D, | (^C, D,) G,, =C, | D, E,/F,/ G, G,, | C,3 |]
% 19
W:6. What language shall I borrow to thank thee, dearest friend,
W:For this thy dying sorrow, thy pity without end?
W:O make me thine forever, and should I fainting be,
W:Lord, let me never, never outlive my love to thee.
W:
W:7. My Shepherd, now receive me; my Guardian, own me thine.
W:Great blessings thou didst give me, O source of gifts divine.
W:Thy lips have often fed me with words of truth and love;
W:Thy Spirit oft hath led me to heavenly joys above.
W:
W:8. Here I will stand beside thee, from thee I will not part;
W:O Saviour, do not chide me! When breaks thy loving heart,
W:When soul and body languish in death's cold, cruel grasp,
W:Then, in thy deepest anguish, thee in mine arms I'll clasp.
W:
W:9. The joy can never be spoken, above all joys beside,
W:When in thy body broken I thus with safety hide.
W:O Lord of Life, desiring thy glory now to see,
W:Beside thy cross expiring, I'd breathe my soul to thee.
W:
W:10. My Saviour, be thou near me when death is at my door;
W:Then let thy presence cheer me, forsake me nevermore!
W:When soul and body languish, oh, leave me not alone,
W:But take away mine anguish by virtue of thine own!
W:
W:11. Be thou my consolation, my shield when I must die;
W:Remind me of thy passion when my last hour draws nigh.
W:Mine eyes shall then behold thee, upon thy cross shall dwell,
W:My heart by faith enfolds thee. Who dieth thus dies well.

